!!!OTL: Der junge Held Gestern Abend beim hellen Lichtenschein,
!!!ARE: Europa, Mitteleuropa, Luxemburg, Trotten
!!!YOR: 3, S. 152
!!    ????
!!!SCT: Q0060I
!!!YEM: Copyright 1995, estate of Helmut Schaffrath.
**kern
*ICvox
*Ivox
*M2/4
*k[b-]
*F:
{16a
16a
=1
16cc
16cc
8cc
8g
8b-
=2
8a
8g
8f}
{16a
16a
=3
8g
16g
16g
8d
8f
=4
8e
8d
8c
16r}
{16c
=5
16f
16f
8f
8g
8g
=6
4a}
{4b-
=7
16cc
16a
8a
16cc
16b-
8g
=8
4f
8r}
==
!!!AGN: Ballade, Verfuehrung, Standesunterschied
!!!ONB: ESAC (Essen Associative Code) Database: BALLADE
!!!AMT: simple duple
!!!AIN: vox
!!!EED: Helmut Schaffrath
!!!EEV: 1.0
*-
